mapicons/Elementary.svg

<?xml version="1.0" encoding="UTF-8" standalone="no"?>
<!-- Created with Inkscape (http://www.inkscape.org/) -->

<svg
   version="1.1"
   id="svg9"
   width="512"
   height="512"
   viewBox="0 0 512 512"
   sodipodi:docname="Elementary.svg"
   inkscape:version="1.2 (dc2aedaf03, 2022-05-15)"
   xmlns:inkscape="http://www.inkscape.org/namespaces/inkscape"
   xmlns:sodipodi="http://sodipodi.sourceforge.net/DTD/sodipodi-0.dtd"
   xmlns="http://www.w3.org/2000/svg"
   xmlns:svg="http://www.w3.org/2000/svg">
  <defs
     id="defs13" />
  <sodipodi:namedview
     id="namedview11"
     pagecolor="#505050"
     bordercolor="#ffffff"
     borderopacity="1"
     inkscape:showpageshadow="0"
     inkscape:pageopacity="0"
     inkscape:pagecheckerboard="1"
     inkscape:deskcolor="#505050"
     showgrid="false"
     showguides="true"
     inkscape:zoom="1.5898438"
     inkscape:cx="-40.570024"
     inkscape:cy="112.58968"
     inkscape:window-width="2560"
     inkscape:window-height="1017"
     inkscape:window-x="1220"
     inkscape:window-y="-8"
     inkscape:window-maximized="1"
     inkscape:current-layer="layer2">
    <sodipodi:guide
       position="49.690418,461.0516"
       orientation="0,-1"
       id="guide69"
       inkscape:locked="false" />
    <sodipodi:guide
       position="49.690418,400.6683"
       orientation="1,0"
       id="guide71"
       inkscape:locked="false" />
    <sodipodi:guide
       position="24.923833,510.11302"
       orientation="1,0"
       id="guide236"
       inkscape:locked="false" />
    <sodipodi:guide
       position="-12.815725,486.91892"
       orientation="0,-1"
       id="guide238"
       inkscape:locked="false" />
  </sodipodi:namedview>
  <g
     inkscape:groupmode="layer"
     id="layer1"
     inkscape:label="Image 1"
     style="display:inline"
     transform="matrix(6.971681,0,0,6.971681,-57.162516,-67.368026)">
    <path
       id="rect234"
       style="display:inline;fill:#808080;stroke-width:0.808865"
       d="m 10.066406,11.28125 c -0.2733687,0 -0.4941404,0.220772 -0.4941404,0.494141 v 28.169921 c 0,0.273369 0.2207717,0.492188 0.4941404,0.492188 h 10.177735 l 2.220703,3.669922 2.441406,4.039062 2.277344,-4.134765 1.966797,-3.574219 H 41.46875 c 0.273369,0 0.494141,-0.218819 0.494141,-0.492188 V 11.775391 c 0,-0.273369 -0.220772,-0.494141 -0.494141,-0.494141 z" />
  </g>
  <g
     inkscape:groupmode="layer"
     id="layer2"
     inkscape:label="Image 2"
     style="display:inline"
     sodipodi:insensitive="true"
     transform="matrix(6.971681,0,0,6.971681,-57.162516,-67.368026)">
    <path
       id="path596"
       style="display:inline;fill:#ffffff"
       d="M 24.962891,18.763672 14.732422,27.658203 14.566406,38.5 l 8.421875,-0.138672 0.02734,-4.949219 4.003906,0.08398 V 38.5 l 8.00586,-0.111328 -0.08398,-10.980469 z m 3.585937,8.964844 h 2.222656 c 0.277181,0 0.501954,0.222819 0.501954,0.5 v 2.251953 c 0,0.27718 -0.224773,0.5 -0.501954,0.5 h -2.222656 c -0.27718,0 -0.5,-0.22282 -0.5,-0.5 v -2.251953 c 0,-0.277181 0.22282,-0.5 0.5,-0.5 z m -9.589844,0.125 h 2.222657 c 0.277178,0 0.5,0.222819 0.5,0.5 v 2.251953 c 0,0.277178 -0.222822,0.5 -0.5,0.5 h -2.222657 c -0.277178,0 -0.501953,-0.222822 -0.501953,-0.5 v -2.251953 c 0,-0.277181 0.224775,-0.5 0.501953,-0.5 z m 4.863282,0.01367 h 2.224609 c 0.277181,0 0.5,0.222819 0.5,0.5 v 2.251953 c 0,0.277179 -0.222819,0.5 -0.5,0.5 h -2.224609 c -0.277181,0 -0.5,-0.222821 -0.5,-0.5 v -2.251953 c 0,-0.277181 0.222819,-0.500001 0.5,-0.5 z m 1.112369,-10.715939 11.980856,10.340785 c 1.604017,0.05282 1.734135,-0.719733 1.501082,-1.695667 L 25.879761,14.899626 c -0.685679,-0.706812 -1.371359,-0.461885 -2.057038,0.08339 l -12.31443,10.785551 c -0.197982,1.056648 -0.266252,2.022018 1.501082,1.695666 z m 6.643677,1.278699 1.501081,1.38989 -0.0278,-7.088441 c -0.501231,-0.782998 -0.933565,-0.463654 -1.362092,-0.08339 z m 2.668589,-5.726349 c 0,0 1.041928,0.961669 1.667869,0.88953 0.934683,-0.107721 1.824471,-0.176244 2.751983,-0.138989 0.421883,0.01694 1.445486,0.806136 1.445486,0.806136 v 4.642235 c 0,0 -1.110457,-0.875595 -1.862453,-0.833935 -0.907851,0.05029 -1.792534,0.13222 -2.724185,0.138989 -0.513975,0.0037 -1.2787,-0.861732 -1.2787,-0.861732 z" />
  </g>
</svg>

<?xml version="1.0" encoding="UTF-8" standalone="no"?>
<!-- Created with Inkscape (http://www.inkscape.org/) -->

<svg
   version="1.1"
   id="svg9"
   width="512"
   height="512"
   viewBox="0 0 512 512"
   sodipodi:docname="Elementary.svg"
   inkscape:version="1.2 (dc2aedaf03, 2022-05-15)"
   xmlns:inkscape="http://www.inkscape.org/namespaces/inkscape"
   xmlns:sodipodi="http://sodipodi.sourceforge.net/DTD/sodipodi-0.dtd"
   xmlns="http://www.w3.org/2000/svg"
   xmlns:svg="http://www.w3.org/2000/svg">
  <defs
     id="defs13" />
  <sodipodi:namedview
     id="namedview11"
     pagecolor="#505050"
     bordercolor="#ffffff"
     borderopacity="1"
     inkscape:showpageshadow="0"
     inkscape:pageopacity="0"
     inkscape:pagecheckerboard="1"
     inkscape:deskcolor="#505050"
     showgrid="false"
     showguides="true"
     inkscape:zoom="17.987029"
     inkscape:cx="-2.5296007"
     inkscape:cy="32.690224"
     inkscape:window-width="2560"
     inkscape:window-height="1017"
     inkscape:window-x="1220"
     inkscape:window-y="-8"
     inkscape:window-maximized="1"
     inkscape:current-layer="layer1">
    <sodipodi:guide
       position="49.690418,461.0516"
       orientation="0,-1"
       id="guide69"
       inkscape:locked="false" />
    <sodipodi:guide
       position="49.690418,400.6683"
       orientation="1,0"
       id="guide71"
       inkscape:locked="false" />
    <sodipodi:guide
       position="24.923833,510.11302"
       orientation="1,0"
       id="guide236"
       inkscape:locked="false" />
    <sodipodi:guide
       position="-12.815725,486.91892"
       orientation="0,-1"
       id="guide238"
       inkscape:locked="false" />
  </sodipodi:namedview>
  <g
     inkscape:groupmode="layer"
     id="layer1"
     inkscape:label="Image 1"
     style="display:inline">
    <path
       id="rect234"
       style="display:inline;fill:#808080;stroke-width:0.808865"
       d="M 10.066406 11.28125 C 9.7930373 11.28125 9.5722656 11.502022 9.5722656 11.775391 L 9.5722656 39.945312 C 9.5722656 40.218681 9.7930373 40.4375 10.066406 40.4375 L 20.244141 40.4375 L 22.464844 44.107422 L 24.90625 48.146484 L 27.183594 44.011719 L 29.150391 40.4375 L 41.46875 40.4375 C 41.742119 40.4375 41.962891 40.218681 41.962891 39.945312 L 41.962891 11.775391 C 41.962891 11.502022 41.742119 11.28125 41.46875 11.28125 L 10.066406 11.28125 z " />
  </g>
  <g
     inkscape:groupmode="layer"
     id="layer2"
     inkscape:label="Image 2"
     style="display:inline"
     sodipodi:insensitive="true">
    <path
       id="path596"
       style="display:inline;fill:#ffffff"
       d="M 24.962891,18.763672 14.732422,27.658203 14.566406,38.5 l 8.421875,-0.138672 0.02734,-4.949219 4.003906,0.08398 V 38.5 l 8.00586,-0.111328 -0.08398,-10.980469 z m 3.585937,8.964844 h 2.222656 c 0.277181,0 0.501954,0.222819 0.501954,0.5 v 2.251953 c 0,0.27718 -0.224773,0.5 -0.501954,0.5 h -2.222656 c -0.27718,0 -0.5,-0.22282 -0.5,-0.5 v -2.251953 c 0,-0.277181 0.22282,-0.5 0.5,-0.5 z m -9.589844,0.125 h 2.222657 c 0.277178,0 0.5,0.222819 0.5,0.5 v 2.251953 c 0,0.277178 -0.222822,0.5 -0.5,0.5 h -2.222657 c -0.277178,0 -0.501953,-0.222822 -0.501953,-0.5 v -2.251953 c 0,-0.277181 0.224775,-0.5 0.501953,-0.5 z m 4.863282,0.01367 h 2.224609 c 0.277181,0 0.5,0.222819 0.5,0.5 v 2.251953 c 0,0.277179 -0.222819,0.5 -0.5,0.5 h -2.224609 c -0.277181,0 -0.5,-0.222821 -0.5,-0.5 v -2.251953 c 0,-0.277181 0.222819,-0.500001 0.5,-0.5 z m 1.112369,-10.715939 11.980856,10.340785 c 1.604017,0.05282 1.734135,-0.719733 1.501082,-1.695667 L 25.879761,14.899626 c -0.685679,-0.706812 -1.371359,-0.461885 -2.057038,0.08339 l -12.31443,10.785551 c -0.197982,1.056648 -0.266252,2.022018 1.501082,1.695666 z m 6.643677,1.278699 1.501081,1.38989 -0.0278,-7.088441 c -0.501231,-0.782998 -0.933565,-0.463654 -1.362092,-0.08339 z m 2.668589,-5.726349 c 0,0 1.041928,0.961669 1.667869,0.88953 0.934683,-0.107721 1.824471,-0.176244 2.751983,-0.138989 0.421883,0.01694 1.445486,0.806136 1.445486,0.806136 v 4.642235 c 0,0 -1.110457,-0.875595 -1.862453,-0.833935 -0.907851,0.05029 -1.792534,0.13222 -2.724185,0.138989 -0.513975,0.0037 -1.2787,-0.861732 -1.2787,-0.861732 z" />
  </g>
</svg>
